icons/treasure-map-line.svg

<svg viewBox="0 0 24 24" fill="currentColor" xmlns="http://www.w3.org/2000/svg"><path d="M14.9352 7.20369L8.93524 4.20369L4 6.31879V18.9669L9.06476 16.7963L15.0648 19.7963L20 17.6812V5.03308L14.9352 7.20369ZM2 5L9 2L15 5L21.303 2.2987C21.5569 2.18992 21.8508 2.30749 21.9596 2.56131C21.9862 2.62355 22 2.69056 22 2.75827V19L15 22L9 19L2.69696 21.7013C2.44314 21.8101 2.14921 21.6925 2.04043 21.4387C2.01375 21.3765 2 21.3094 2 21.2417V5ZM6 11H8V13H6V11ZM10 11H12V13H10V11ZM15.9981 10.9374L17.2355 9.7L18.2962 10.7607L17.0588 11.9981L18.2962 13.2355L17.2355 14.2962L15.9981 13.0588L14.7607 14.2962L13.7 13.2355L14.9374 11.9981L13.7 10.7607L14.7607 9.7L15.9981 10.9374Z"/></svg>

<svg xmlns="http://www.w3.org/2000/svg" viewBox="0 0 24 24">
    <g>
        <path fill="none" d="M0 0h24v24H0z"/>
        <path fill-rule="nonzero" d="M14.935 7.204l-6-3L4 6.319v12.648l5.065-2.17 6 3L20 17.68V5.033l-5.065 2.17zM2 5l7-3 6 3 6.303-2.701a.5.5 0 0 1 .697.46V19l-7 3-6-3-6.303 2.701a.5.5 0 0 1-.697-.46V5zm4 6h2v2H6v-2zm4 0h2v2h-2v-2zm5.998-.063L17.236 9.7l1.06 1.06-1.237 1.238 1.237 1.238-1.06 1.06-1.238-1.237-1.237 1.237-1.061-1.06 1.237-1.238-1.237-1.237L14.76 9.7l1.238 1.237z"/>
    </g>
</svg>
